X:39
T:Pull the Knife Out and Sitck it in Again
R:jig
M:6/8
L:1/8
K:Em
E3  GFE | DB,E DB,D | E3   GFE | ABG    AFD |
E3  GFE | DB,E  DEF | G2 E FED | B,ED  E2 D :| 
edB BAF | DEB,   D3 | edB  BAF | ABc    def |
edB BAF | DEB,  DEF | G2 E FED |1 B,ED E2 d :|2 B,ED E3 |]
